src/icons/pie-chart.svg

<svg xmlns="http://www.w3.org/2000/svg" width="8" height="8" viewBox="0 0 8 8">
  <path d="M3.5 0c-.97 0-1.84.4-2.47 1.03l2.97 2.97v-3.97c-.16-.02-.33-.03-.5-.03zm1.5 1.06v3.41l-2.72 2.72c.61.5 1.37.81 2.22.81 1.93 0 3.5-1.57 3.5-3.5 0-1.76-1.31-3.19-3-3.44zm-4.09 1.31c-.56.54-.91 1.29-.91 2.13 0 .96.46 1.79 1.16 2.34l2.13-2.13-2.38-2.34z"
  />
</svg>

<svg xmlns="http://www.w3.org/2000/svg" viewBox="0 0 8 8"><path d="M3.5 0c-.97 0-1.84.4-2.47 1.03L4 4V.03A4.07 4.07 0 0 0 3.5 0zM5 1.06v3.41L2.28 7.19c.61.5 1.37.81 2.22.81C6.43 8 8 6.43 8 4.5c0-1.76-1.31-3.19-3-3.44zM.91 2.37C.35 2.91 0 3.66 0 4.5c0 .96.46 1.79 1.16 2.34l2.13-2.13L.91 2.37z"/></svg>
